pound-box-outline.svg

<svg fill="currentColor" viewBox="0 0 24 24"><path d="M19 19H5V5h14m0-2H5a2 2 0 0 0-2 2v14a2 2 0 0 0 2 2h14a2 2 0 0 0 2-2V5a2 2 0 0 0-2-2M7 9h2.31l.32-3h2l-.32 3h2l.32-3h2l-.32 3H17v2h-1.9l-.2 2H17v2h-2.31l-.32 3h-2l.32-3h-2l-.32 3h-2l.32-3H7v-2h1.9l.2-2H7zm4.1 2-.2 2h2l.2-2Z"/></svg>

<svg  viewBox="0 0 24 24" fill="currentColor"><path  d="M19 19H5V5H19M19 3H5A2 2 0 0 0 3 5V19A2 2 0 0 0 5 21H19A2 2 0 0 0 21 19V5A2 2 0 0 0 19 3M7 9H9.31L9.63 6H11.63L11.31 9H13.31L13.63 6H15.63L15.31 9H17V11H15.1L14.9 13H17V15H14.69L14.37 18H12.37L12.69 15H10.69L10.37 18H8.37L8.69 15H7V13H8.9L9.1 11H7V9M11.1 11L10.9 13H12.9L13.1 11Z"/></svg>
